icons/hepatology.svg

<svg width="48" height="48" viewBox="0 0 48 48" fill="none" xmlns="http://www.w3.org/2000/svg">
<path fill-rule="evenodd" clip-rule="evenodd" d="M39 8H9C8.44771 8 8 8.44772 8 9V39C8 39.5523 8.44772 40 9 40H39C39.5523 40 40 39.5523 40 39V9C40 8.44771 39.5523 8 39 8ZM9 6C7.34315 6 6 7.34315 6 9V39C6 40.6569 7.34315 42 9 42H39C40.6569 42 42 40.6569 42 39V9C42 7.34315 40.6569 6 39 6H9Z" fill="black"/>
<path fill-rule="evenodd" clip-rule="evenodd" d="M23.0623 13.0031C22.6154 13.6916 22.2977 14.3862 22.0729 15.0271C21.783 15.8535 21.6446 16.5965 21.5784 17.136C21.5452 17.4066 21.5299 17.6282 21.5229 17.7865C21.5194 17.8657 21.518 17.9293 21.5176 17.9754C21.5173 17.9985 21.5173 18.0172 21.5174 18.0313L21.5175 18.0491L21.5176 18.0554L21.5177 18.0579L21.5177 18.059C21.5177 18.0594 21.5177 18.0599 22.5175 18.0401C23.4562 18.0214 23.5136 18.0207 23.5171 18.021L23.5174 17.9965C23.5177 17.9716 23.5185 17.9304 23.521 17.8746C23.5259 17.7628 23.5373 17.5933 23.5636 17.3796C23.6162 16.9507 23.7274 16.3527 23.9601 15.6891C24.2418 14.8861 24.6973 13.996 25.441 13.1868C26.8207 13.4148 27.3807 13.8111 27.8499 14.1432C28.2959 14.4589 28.6599 14.7165 29.5679 14.7165C30.5053 14.7165 31.8177 14.387 33.13 14.0574C35.0986 13.5631 37.0671 13.0688 37.7702 13.6867C38.9419 14.7165 35.4266 22.2687 31.9114 22.2687C30.102 22.2687 29.017 23.7954 27.9639 25.2771C26.9711 26.674 26.0066 28.031 24.4903 28.031C23.4682 28.031 22.6968 28.296 22.0122 28.6526V23.8214C22.0122 23.5801 22.1302 23.34 22.366 23.1336C22.6208 22.9107 22.8917 22.8347 22.9988 22.8347V20.8347C22.3113 20.8347 21.5889 21.156 21.049 21.6285C20.4902 22.1174 20.0122 22.8706 20.0122 23.8214V24.4045C19.0957 24.7729 17.6956 24.9497 16.1705 23.7513C13.5125 21.6627 11.9935 24.5869 14.2719 26.2575C15.8494 27.4142 18.519 26.9692 20.0122 26.5859V29.8467C19.309 30.2229 18.519 30.5075 17.4597 30.5075C16.1784 30.5075 15.7549 31.7138 15.3048 32.9957C14.7945 34.4492 14.25 36.0001 12.3821 36.0001C8.86683 36.0001 9.7342 23.2679 11.828 18.3394C13.9218 13.4108 16.787 13.0001 22.6458 13.0001C22.7888 13.0001 22.9276 13.0011 23.0623 13.0031Z" fill="black"/>
<path fill-rule="evenodd" clip-rule="evenodd" d="M20.0122 41.5V30H22.0122V41.5H20.0122Z" fill="black"/>
</svg>

<svg
  xmlns="http://www.w3.org/2000/svg"
  width="24"
  height="24"
  viewBox="0 0 24 24"
  fill="none"
  stroke="currentColor"
  stroke-width="2"
  stroke-linecap="round"
  stroke-linejoin="round"
>
  <path
    fill-rule="evenodd"
    d="M39 8H9a1 1 0 0 0-1 1v30a1 1 0 0 0 1 1h30a1 1 0 0 0 1-1V9a1 1 0 0 0-1-1M9 6a3 3 0 0 0-3 3v30a3 3 0 0 0 3 3h30a3 3 0 0 0 3-3V9a3 3 0 0 0-3-3z"
    clip-rule="evenodd"
  />
  <path
    fill-rule="evenodd"
    d="M23.062 13.003a9.5 9.5 0 0 0-.99 2.024c-.289.827-.427 1.57-.494 2.109a8 8 0 0 0-.06.895v.028l1-.019c.938-.019.996-.02 1-.019v-.024q0-.038.003-.122c.005-.112.016-.282.043-.495a8 8 0 0 1 .396-1.69 7.2 7.2 0 0 1 1.481-2.503c1.38.228 1.94.624 2.409.956.446.316.81.573 1.718.573.937 0 2.25-.329 3.562-.659 1.969-.494 3.937-.988 4.64-.37 1.172 1.03-2.343 8.582-5.859 8.582-1.809 0-2.894 1.526-3.947 3.008-.993 1.397-1.957 2.754-3.474 2.754-1.022 0-1.793.265-2.478.622V23.82c0-.24.118-.481.354-.687.255-.223.526-.3.633-.3v-2c-.688 0-1.41.322-1.95.794-.559.49-1.037 1.243-1.037 2.193v.583c-.916.369-2.316.546-3.841-.653-2.658-2.088-4.177.836-1.9 2.506 1.578 1.157 4.248.712 5.741.329v3.26c-.703.377-1.493.662-2.552.662-1.282 0-1.705 1.206-2.155 2.488C14.795 34.449 14.25 36 12.382 36c-3.515 0-2.648-12.732-.554-17.66C13.922 13.41 16.787 13 22.646 13q.215 0 .416.003"
    clip-rule="evenodd"
  />
  <path fill-rule="evenodd" d="M20.012 41.5V30h2v11.5z" clip-rule="evenodd" />
</svg>
